X: 32233
T: Phyllis' Birthday
R: reel
M: 4/4
K: Fmajor
A~F3 Acdc|ABGB AGFD|CDFG Acce|fdcA G3B|
A~F3 Acdc|ABGB AGFD|CDFG Acce|1 fdcA F2 FG:|2 fdcA F3A||
cdfg aggf|d2 cB AFFA|cdfg afgf|~g3a gfdf|
cdfg aggf|dfcB AFFD|CDFG Acce|1 fdcA F3A:|2 fdcA F2 FG||

